!!!OTL: Da dangong
!!!ARE: Asia, China,ˇHenan, Lingbao
!! IV, 165
!!!SCT: C1666
!!!YEM: Copyright 1995, estate of Helmut Schaffrath.
**kern
*ICvox
*Ivox
!! Mixed meters:  3/4; 4/4
*M4/4
*k[]
*C:
{8dd
8dd
16a
16cc
16b
16a
2g
=1
8dd
8dd
16a
16cc
[8dd
2dd]}
=2
*M3/4
{8dd
16dd
16cc
16g
16a
4g
8a
=3
*M4/4
8dd
16dd
16cc
16g
16a
[8g
2g]}
=4
*M3/4
{8dd
8dd
16a
16cc
[8dd
4dd]
=5
16a
16cc
16g
16a
16cc
16a
[8g
4g]}
=6
{8dd
16dd
16cc
16g
16a
[8g
4g]
=7
*M4/4
8cc
8cc
16a
16cc
[8dd
2dd]}
=8
*M3/4
{8cc
16cc
16a
16g
16a
4g
8a
=9
8.dd
16cc
16g
16a
4.g}
==
!!!AGN: Shange. NannÅ qing
!!!AMT: irregular
!!!AIN: vox
!!!EED: Helmut Schaffrath
!!!EEV: 1.0
*-
